lib/healthicons/icons/outline/typography/H.svg

<svg fill="none" height="48" viewBox="0 0 48 48" width="48" xmlns="http://www.w3.org/2000/svg"><path clip-rule="evenodd" d="m13 12c0-1.6569 1.3431-3 3-3s3 1.3431 3 3v9h10v-9c0-1.6569 1.3431-3 3-3s3 1.3431 3 3v24c0 1.6569-1.3431 3-3 3s-3-1.3431-3-3v-9h-10v9c0 1.6569-1.3431 3-3 3s-3-1.3431-3-3zm3-1c-.5523 0-1 .4477-1 1v24c0 .5523.4477 1 1 1s1-.4477 1-1v-11h14v11c0 .5523.4477 1 1 1s1-.4477 1-1v-24c0-.5523-.4477-1-1-1s-1 .4477-1 1v11h-14v-11c0-.5523-.4477-1-1-1z" fill="#333" fill-rule="evenodd"/></svg>

<svg width="48" height="48" viewBox="0 0 48 48" fill="none" xmlns="http://www.w3.org/2000/svg">
<path fill-rule="evenodd" clip-rule="evenodd" d="M13 12C13 10.3431 14.3431 9 16 9C17.6569 9 19 10.3431 19 12V21H29V12C29 10.3431 30.3431 9 32 9C33.6569 9 35 10.3431 35 12V36C35 37.6569 33.6569 39 32 39C30.3431 39 29 37.6569 29 36V27H19V36C19 37.6569 17.6569 39 16 39C14.3431 39 13 37.6569 13 36V12ZM16 11C15.4477 11 15 11.4477 15 12V36C15 36.5523 15.4477 37 16 37C16.5523 37 17 36.5523 17 36V25H31V36C31 36.5523 31.4477 37 32 37C32.5523 37 33 36.5523 33 36V12C33 11.4477 32.5523 11 32 11C31.4477 11 31 11.4477 31 12V23H17V12C17 11.4477 16.5523 11 16 11Z" fill="#333333"/>
</svg>
